assets/img/usageIcon2.svg

<svg width="128" height="128" fill="none" xmlns="http://www.w3.org/2000/svg"><path d="M112 62.072V16L32 0v65.4a23.803 23.803 0 0 0-8-1.4C10.736 64 0 74.764 0 88c0 13.256 10.736 24 24 24 13.244 0 24-10.744 24-24V24l48 8v24.236A35.739 35.739 0 0 0 92 56c-19.892 0-36 16.108-36 36 0 19.884 16.108 35.992 36 36 19.884-.008 35.992-16.116 36-36-.004-12.484-6.356-23.472-16-29.928Zm-20 57.46C76.796 119.496 64.496 107.196 64.46 92 64.496 76.796 76.796 64.496 92 64.464c15.196.032 27.496 12.332 27.532 27.536-.036 15.196-12.336 27.496-27.532 27.532Z" fill="#65CB88"/><path d="M112 96v-8.004h-6.652a13.783 13.783 0 0 0-.98-2.424l4.748-4.748-5.664-5.66-4.66 4.664a13.719 13.719 0 0 0-2.788-1.176V72h-8v6.648c-.916.272-1.784.632-2.608 1.08l-4.564-4.56-5.66 5.66 4.56 4.56A13.878 13.878 0 0 0 78.648 88H72v8h6.648c.292.984.688 1.916 1.18 2.792l-4.66 4.652 5.652 5.664 4.752-4.748c.768.404 1.576.728 2.42.98V112H96v-6.66c.916-.272 1.78-.632 2.604-1.08l4.848 4.848 5.656-5.664-4.848-4.84A14.06 14.06 0 0 0 105.34 96H112Zm-20.004 1.996a6.013 6.013 0 0 1-6.004-6 6.02 6.02 0 0 1 6.004-6.004 6.013 6.013 0 0 1 6 6.004 6.007 6.007 0 0 1-6 6Z" fill="#65CB88"/></svg>

<svg width="128" height="128" viewBox="0 0 128 128" fill="none" xmlns="http://www.w3.org/2000/svg">
<path d="M112 62.072V16L32 0V65.4C29.492 64.508 26.808 64 24 64C10.736 64 0 74.764 0 88C0 101.256 10.736 112 24 112C37.244 112 48 101.256 48 88V24L96 32V56.236C94.684 56.088 93.352 56 92 56C72.108 56 56 72.108 56 92C56 111.884 72.108 127.992 92 128C111.884 127.992 127.992 111.884 128 92C127.996 79.516 121.644 68.528 112 62.072ZM92 119.532C76.796 119.496 64.496 107.196 64.46 92C64.496 76.796 76.796 64.496 92 64.464C107.196 64.496 119.496 76.796 119.532 92C119.496 107.196 107.196 119.496 92 119.532Z" fill="#65CB88"/>
<path d="M112 96V87.996H105.348C105.096 87.148 104.768 86.344 104.368 85.572L109.116 80.824L103.452 75.164L98.792 79.828C97.912 79.336 96.984 78.944 96.004 78.652V72H88.004V78.648C87.088 78.92 86.22 79.28 85.396 79.728L80.832 75.168L75.172 80.828L79.732 85.388C79.284 86.216 78.924 87.084 78.648 88H72V96H78.648C78.94 96.984 79.336 97.916 79.828 98.792L75.168 103.444L80.82 109.108L85.572 104.36C86.34 104.764 87.148 105.088 87.992 105.34V112H96V105.34C96.916 105.068 97.78 104.708 98.604 104.26L103.452 109.108L109.108 103.444L104.26 98.604C104.704 97.78 105.064 96.912 105.34 96H112ZM91.996 97.996C88.68 97.988 86.004 95.312 85.992 91.996C86.004 88.68 88.68 86.004 91.996 85.992C95.312 86.004 97.988 88.68 97.996 91.996C97.988 95.312 95.312 97.988 91.996 97.996Z" fill="#65CB88"/>
</svg>
